svgs/sharp-solid/tablet-screen.svg

<svg xmlns="http://www.w3.org/2000/svg" viewBox="0 0 448 512"><!--! Font Awesome Pro 6.6.0 by @fontawesome - https://fontawesome.com License - https://fontawesome.com/license (Commercial License) Copyright 2024 Fonticons, Inc. --><path d="M0 0L448 0l0 512L0 512 0 0zM160 432l0 32 16 0 96 0 16 0 0-32-16 0-96 0-16 0zM384 64L64 64l0 320 320 0 0-320z"/></svg>

<svg xmlns="http://www.w3.org/2000/svg" viewBox="0 0 448 512"><!--! Font Awesome Pro 6.4.0 by @fontawesome - https://fontawesome.com License - https://fontawesome.com/license (Commercial License) Copyright 2023 Fonticons, Inc. --><path d="M0 0H448V512H0V0zM160 432v32h16 96 16V432H272 176 160zM384 64H64V384H384V64z"/></svg>
